X:217 
T:Tune of the Rag (reel), The  
F:file ID: cre.5/217tune_r
B:CRE5.152 (Port na GiobÃÂÃÂÃÂÃÂ³ige)
M:4/4
Q:180
R:reel
K:G
dc|BGGF G2dB|cAAG A2Bd|edgd edBG|BAAG A2dc|
BGGF G2dB|cAAG A2Bd|edgd edBA|G2GF G2:|
zB|d2Bd gdBG|d2Bd gdBG|d2Bd gdBG|BAAG A2dc|
dGBd gdBG|dGBd g2Bd|efgf edBA|G2GF G2:|

%%%

